flaticon/science/test-tube-4.svg

<svg xmlns="http://www.w3.org/2000/svg" width="32" height="32" viewBox="0 0 24 24">
    <path d="M11.191406 16.800781L13.59375 16.800781C13.832031 16.800781 13.992188 16.640625 13.992188 16.398438 13.992188 16.160156 13.832031 16 13.59375 16L11.191406 16C10.953125 16 10.792969 16.160156 10.792969 16.398438 10.792969 16.640625 10.953125 16.800781 11.191406 16.800781zM11.191406 10.398438L13.59375 10.398438C13.832031 10.398438 13.992188 10.238281 13.992188 10 13.992188 9.761719 13.832031 9.601562 13.59375 9.601562L11.191406 9.601562C10.953125 9.601562 10.792969 9.761719 10.792969 10 10.792969 10.238281 10.953125 10.398438 11.191406 10.398438zM11.191406 12L12.394531 12C12.632812 12 12.792969 11.839844 12.792969 11.601562 12.792969 11.359375 12.632812 11.199219 12.394531 11.199219L11.191406 11.199219C10.953125 11.199219 10.792969 11.359375 10.792969 11.601562 10.792969 11.839844 10.953125 12 11.191406 12zM11.191406 13.601562L13.59375 13.601562C13.832031 13.601562 13.992188 13.441406 13.992188 13.199219 13.992188 12.960938 13.832031 12.800781 13.59375 12.800781L11.191406 12.800781C10.953125 12.800781 10.792969 12.960938 10.792969 13.199219 10.792969 13.441406 10.953125 13.601562 11.191406 13.601562zM11.191406 15.199219L12.394531 15.199219C12.632812 15.199219 12.792969 15.039062 12.792969 14.800781 12.792969 14.558594 12.632812 14.398438 12.394531 14.398438L11.191406 14.398438C10.953125 14.398438 10.792969 14.558594 10.792969 14.800781 10.792969 15.039062 10.953125 15.199219 11.191406 15.199219zM11.191406 15.199219"/>
    <path d="M 17.992188 15.835938 L 17.992188 1.199219 C 17.992188 0.519531 17.472656 0 16.792969 0 L 7.191406 0 C 6.753906 0 6.394531 0.199219 6.152344 0.601562 C 5.914062 1 5.914062 1.441406 6.113281 1.800781 C 6.152344 1.839844 6.152344 1.839844 6.191406 1.878906 L 8.191406 3.921875 C 8.832031 4.558594 9.191406 5.480469 9.191406 6.398438 L 9.191406 22.800781 C 9.191406 23.480469 9.710938 24 10.394531 24 L 16.792969 24 C 16.8125 24 16.835938 24 16.855469 24 C 17.503906 23.96875 17.992188 23.457031 18.03125 22.800781 L 18.03125 16 C 18.03125 15.953125 18.019531 15.894531 17.992188 15.835938 Z M 8.792969 3.359375 L 6.832031 1.359375 C 6.753906 1.199219 6.832031 1.039062 6.832031 1 C 6.871094 0.921875 6.992188 0.800781 7.191406 0.800781 L 16.792969 0.800781 C 17.03125 0.800781 17.191406 0.960938 17.191406 1.199219 L 17.191406 15.65625 C 16.324219 15.835938 15.574219 16.382812 14.914062 17.320312 C 13.761719 18.816406 11.582031 18.507812 9.992188 17.777344 L 9.992188 6.398438 C 9.992188 5.28125 9.550781 4.199219 8.792969 3.359375 Z M 16.792969 23.199219 L 10.394531 23.199219 C 10.152344 23.199219 9.992188 23.039062 9.992188 22.800781 L 9.992188 18.679688 C 12.273438 19.601562 14.394531 19.320312 15.511719 17.839844 C 16.03125 17.121094 16.59375 16.679688 17.191406 16.519531 L 17.191406 22.800781 C 17.191406 23.039062 17.03125 23.199219 16.792969 23.199219 Z M 16.792969 23.199219"/>
</svg>

<svg xmlns="http://www.w3.org/2000/svg" width="32" height="32" viewBox="0 0 24 24">
    <path d="M11.191 16.8h2.403c.238 0 .398-.16.398-.402 0-.238-.16-.398-.398-.398H11.19c-.238 0-.398.16-.398.398 0 .243.16.403.398.403zm0 0M11.191 10.398h2.403c.238 0 .398-.16.398-.398 0-.238-.16-.398-.398-.398H11.19c-.238 0-.398.16-.398.398 0 .238.16.398.398.398zm0 0M11.191 12h1.204c.238 0 .398-.16.398-.398 0-.243-.16-.403-.398-.403H11.19c-.238 0-.398.16-.398.403 0 .238.16.398.398.398zm0 0M11.191 13.602h2.403c.238 0 .398-.16.398-.403 0-.238-.16-.398-.398-.398H11.19c-.238 0-.398.16-.398.398 0 .242.16.403.398.403zm0 0M11.191 15.2h1.204c.238 0 .398-.16.398-.4 0-.241-.16-.402-.398-.402H11.19c-.238 0-.398.16-.398.403 0 .238.16.398.398.398zm0 0"/>
    <path d="M17.992 15.836V1.199c0-.68-.52-1.199-1.199-1.199H7.191c-.437 0-.796.2-1.039.602-.238.398-.238.84-.039 1.199l.078.078 2 2.043c.641.637 1 1.558 1 2.476v16.403c0 .68.52 1.199 1.204 1.199h6.46c.649-.031 1.137-.543 1.176-1.2V16a.399.399 0 0 0-.039-.164zM8.793 3.359l-1.961-2c-.078-.16 0-.32 0-.359.04-.078.16-.2.36-.2h9.601c.238 0 .398.16.398.4v14.456c-.867.18-1.617.727-2.277 1.664-1.152 1.496-3.332 1.188-4.922.457V6.398c0-1.117-.441-2.199-1.199-3.039zm8 19.84h-6.398c-.243 0-.403-.16-.403-.398V18.68c2.281.922 4.403.64 5.52-.84.52-.719 1.082-1.16 1.68-1.32v6.28c0 .24-.16.4-.399.4zm0 0"/>
</svg>
